icons/Audition.svg

<svg width="256" height="256" viewBox="0 0 256 256" fill="none" xmlns="http://www.w3.org/2000/svg">
<rect width="256" height="256" rx="60" fill="#00005B"/>
<path d="M105.208 156.5H65.5082L57.4082 181.7C57.2082 182.7 56.3082 183.3 55.4082 183.2H35.3082C34.1082 183.2 33.8082 182.6 34.1082 181.3L68.5082 82.5C68.8082 81.4 69.1082 80.3 69.6082 79C70.1082 76.8 70.5082 74.5 70.5082 72.2C70.4082 71.7 70.8082 71.1 71.4082 71C71.5082 71 71.6082 71 71.7082 71H99.1082C99.8082 71 100.408 71.3 100.508 71.9L139.308 181.5C139.608 182.7 139.308 183.2 138.208 183.2H115.908C115.208 183.3 114.408 182.8 114.208 182L105.208 156.5ZM71.7082 135.2H98.8082C98.2082 133 97.3082 130.3 96.3082 127.5C95.3082 124.6 94.4082 121.5 93.4082 118.3C92.3082 115 91.4082 111.8 90.3082 108.5C89.2082 105.2 88.3082 102.1 87.4082 99C86.5082 96 85.8082 93.2 85.0082 90.7H84.8082C83.8082 95.3 82.7082 99.9 81.2082 104.5C79.6082 109.6 78.0082 115 76.3082 120.3C75.0082 125.7 73.3082 130.7 71.7082 135.2Z" fill="#9999FF"/>
<path d="M221.208 99.0002V164.5C221.208 167.4 221.208 169.9 221.308 172.2C221.408 174.4 221.508 176.4 221.608 178.1C221.808 179.8 221.908 180.8 222.008 181.9C222.108 182.9 221.708 183.3 220.808 183.3H202.508C201.608 183.4 200.808 182.9 200.508 182.1C200.308 181.2 200.108 180.3 199.908 179.4C199.708 178.7 199.708 177.9 199.708 177.2C196.308 180.3 192.108 182.5 187.608 183.8C183.808 184.9 179.708 185.4 175.708 185.4C171.708 185.4 167.808 184.9 164.108 183.6C160.708 182.4 157.508 180.4 155.008 177.7C152.208 174.7 150.208 171.2 149.008 167.3C147.508 162.4 146.808 157.3 146.908 152.1V99.1002C146.808 98.5002 147.208 97.8002 148.008 97.7002C148.108 97.7002 148.208 97.7002 148.308 97.7002H168.708C169.308 97.6002 170.008 98.0002 170.108 98.8002C170.108 98.9002 170.108 99.0002 170.108 99.1002V149.3C170.108 154 171.208 157.7 173.208 160.4C175.208 163.1 179.408 164.5 184.208 164.5C186.708 164.5 189.108 164.1 191.508 163.2C194.008 162.3 196.208 161.2 198.208 159.7V99.0002C198.208 98.3002 198.708 97.8002 199.708 97.8002H220.108C220.608 97.7002 221.308 98.1002 221.308 98.7002C221.208 98.8002 221.208 98.9002 221.208 99.0002Z" fill="#9999FF"/>
</svg>

<svg xmlns="http://www.w3.org/2000/svg" width="256" height="256" fill="none" viewBox="0 0 256 256"><rect width="256" height="256" fill="#00005B" rx="60"/><path fill="#99F" d="M105.2 156.5H65.5l-8.1 25.2c-.2 1-1.1 1.6-2 1.5H35.3c-1.2 0-1.5-.6-1.2-1.9l34.4-98.8c.3-1.1.6-2.2 1.1-3.5.5-2.2.9-4.5.9-6.8-.1-.5.3-1.1.9-1.2h27.7c.7 0 1.3.3 1.4.9l38.8 109.6c.3 1.2 0 1.7-1.1 1.7h-22.3c-.7.1-1.5-.4-1.7-1.2zm-33.5-21.3h27.1c-.6-2.2-1.5-4.9-2.5-7.7-1-2.9-1.9-6-2.9-9.2-1.1-3.3-2-6.5-3.1-9.8s-2-6.4-2.9-9.5c-.9-3-1.6-5.8-2.4-8.3h-.2c-1 4.6-2.1 9.2-3.6 13.8-1.6 5.1-3.2 10.5-4.9 15.8-1.3 5.4-3 10.4-4.6 14.9M221.2 99v65.5a183 183 0 0 0 .4 13.6c.2 1.7.3 2.7.4 3.8.1 1-.3 1.4-1.2 1.4h-18.3c-.9.1-1.7-.4-2-1.2l-.6-2.7c-.2-.7-.2-1.5-.2-2.2-3.4 3.1-7.6 5.3-12.1 6.6-3.8 1.1-7.9 1.6-11.9 1.6s-7.9-.5-11.6-1.8c-3.4-1.2-6.6-3.2-9.1-5.9-2.8-3-4.8-6.5-6-10.4-1.5-4.9-2.2-10-2.1-15.2v-53c-.1-.6.3-1.3 1.1-1.4h20.7c.6-.1 1.3.3 1.4 1.1v50.5c0 4.7 1.1 8.4 3.1 11.1s6.2 4.1 11 4.1c2.5 0 4.9-.4 7.3-1.3 2.5-.9 4.7-2 6.7-3.5V99c0-.7.5-1.2 1.5-1.2h20.4c.5-.1 1.2.3 1.2.9-.1.1-.1.2-.1.3"/></svg>
